common/src/main/resources/icons/expui/breakpoints/breakpointMethodMutedDependent.svg

<svg xmlns="http://www.w3.org/2000/svg" width="14" height="14" viewBox="0 0 24 24"><defs><mask id="a"><path fill="#fff" d="M19 3H5c-1.11 0-2 .89-2 2v14a2 2 0 0 0 2 2h14a2 2 0 0 0 2-2V5a2 2 0 0 0-2-2m0 2v14H5V5z"/><path stroke="#000" stroke-width="4" d="M12 10.072 20.472 1.6H15.2V0h8v8h-1.6V2.728L13.128 11.2z"/><path fill="#fff" d="M12 10.072 20.472 1.6H15.2V0h8v8h-1.6V2.728L13.128 11.2z"/></mask></defs><g mask="url(#a)"><path fill="#FFCB6B" d="M19 3H5c-1.11 0-2 .89-2 2v14a2 2 0 0 0 2 2h14a2 2 0 0 0 2-2V5a2 2 0 0 0-2-2m0 2v14H5V5z"/><path fill="#FFD54F" d="M12 10.072 20.472 1.6H15.2V0h8v8h-1.6V2.728L13.128 11.2z"/></g></svg>

<!--
  - The MIT License (MIT)
  -
  - Copyright (c) 2015-2023 Elior "Mallowigi" Boukhobza
  -
  - Permission is hereby granted, free of charge, to any person obtaining a copy
  - of this software and associated documentation files (the "Software"), to deal
  - in the Software without restriction, including without limitation the rights
  - to use, copy, modify, merge, publish, distribute, sublicense, and/or sell
  - copies of the Software, and to permit persons to whom the Software is
  - furnished to do so, subject to the following conditions:
  -
  - The above copyright notice and this permission notice shall be included in all
  - copies or substantial portions of the Software.
  -
  - THE SOFTWARE IS PROVIDED "AS IS", WITHOUT WARRANTY OF ANY KIND, EXPRESS OR
  - IMPLIED, INCLUDING BUT NOT LIMITED TO THE WARRANTIES OF MERCHANTABILITY,
  - FITNESS FOR A PARTICULAR PURPOSE AND NONINFRINGEMENT. IN NO EVENT SHALL THE
  - AUTHORS OR COPYRIGHT HOLDERS BE LIABLE FOR ANY CLAIM, DAMAGES OR OTHER
  - LIABILITY, WHETHER IN AN ACTION OF CONTRACT, TORT OR OTHERWISE, ARISING FROM,
  - OUT OF OR IN CONNECTION WITH THE SOFTWARE OR THE USE OR OTHER DEALINGS IN THE
  - SOFTWARE.
  -
  -->


<svg xmlns="http://www.w3.org/2000/svg" version="1.1" width="14px" height="14px" viewBox="0 0 24 24">
  <defs>
    <mask id="Mask">
      <path fill="white"
            d="M19,3H5C3.89,3 3,3.89 3,5V19A2,2 0 0,0 5,21H19A2,2 0 0,0 21,19V5C21,3.89 20.1,3 19,3M19,5V19H5V5H19Z"/>
      <path fill="black" transform="scale(0.8) translate(10,-5)" stroke-width="5" stroke="black"
            d="M5,17.59L15.59,7H9V5H19V15H17V8.41L6.41,19L5,17.59Z"/>
      <path fill="white" transform="scale(0.8) translate(10,-5)"
            d="M5,17.59L15.59,7H9V5H19V15H17V8.41L6.41,19L5,17.59Z"/>
    </mask>
  </defs>
  <g mask="url(#Mask)">
    <path fill="#FFCB6B"
          d="M19,3H5C3.89,3 3,3.89 3,5V19A2,2 0 0,0 5,21H19A2,2 0 0,0 21,19V5C21,3.89 20.1,3 19,3M19,5V19H5V5H19Z"/>
    <path fill="#FFD54F" transform="scale(0.8) translate(10,-5)"
          d="M5,17.59L15.59,7H9V5H19V15H17V8.41L6.41,19L5,17.59Z"/>
  </g>

</svg>
